; generated by PrusaSlicer 2.5.0+win64 on 2023-01-20 at 06:21:49 UTC

; 

; external perimeters extrusion width = 0.63mm
; perimeters extrusion width = 0.66mm
; infill extrusion width = 0.66mm
; solid infill extrusion width = 0.66mm
; top infill extrusion width = 0.60mm
; first layer extrusion width = 0.63mm

M107
M190 S60 ; set bed temperature and wait for it to be reached
M104 S210 ; set temperature
;TYPE:Custom
; You can use following code instead if your PRINT_START macro support Chamber and print area bedmesh
PRINT_START EXTRUDER=210
M109 S210 ; set temperature and wait for it to be reached
G21 ; set units to millimeters
G90 ; use absolute coordinates
M83 ; use relative distances for extrusion
; Filament gcode
M107
;LAYER_CHANGE
;Z:0.3
;HEIGHT:0.3
;BEFORE_LAYER_CHANGE
G92 E0
;0.3


G1 E-2 F2400
G1 Z.3 F9000
;AFTER_LAYER_CHANGE
;0.3
G1 X32.77 Y50.512
G1 E2 F1800
M204 S500
;TYPE:Skirt/Brim
;WIDTH:0.63
G1 F1200
G1 X34.033 Y49.898 E.0991
G1 X35.292 Y49.642 E.09067
G1 X58.922 Y48.152 E1.67028
G1 X60.275 Y48.12 E.09549
G1 X62.723 Y48.31 E.17324
G1 X65.137 Y48.82 E.17402
G1 X67.332 Y49.581 E.16392
G1 X69.556 Y50.688 E.17529
G1 X71.643 Y52.099 E.17769
G1 X73.5 Y53.749 E.17523
G1 X75.185 Y55.712 E.18254
G1 X76.525 Y57.79 E.17446
G1 X76.918 Y58.859 E.08033
G1 X77.055 Y60.037 E.08365
G1 X76.905 Y61.194 E.08229
G1 X76.477 Y62.304 E.08393
G1 X75.423 Y63.961 E.13856
G1 X74.07 Y65.645 E.15238
G1 X72.567 Y67.135 E.14933
G1 X70.826 Y68.504 E.15623
G1 X69.601 Y69.285 E.10247
G1 X68.323 Y69.97 E.10233
G1 X66.972 Y70.565 E.10412
G1 X65.64 Y71.032 E.09957
G1 X64.198 Y71.417 E.10533
G1 X62.813 Y71.676 E.09939
G1 X61.341 Y71.836 E.10444
G1 X59.923 Y71.881 E.10009
G1 X34.959 Y70.322 E1.76462
G1 X33.897 Y70.056 E.07719
G1 X32.894 Y69.567 E.07875
G1 X32.142 Y68.996 E.06658
G1 X31.392 Y68.144 E.08009
G1 X30.729 Y66.849 E.10261
G1 X30.434 Y65.417 E.10315
G1 X30.444 Y54.462 E.77288
G1 X30.668 Y53.336 E.081
G1 X31.203 Y52.146 E.09203
G1 X31.891 Y51.249 E.07976
G1 X32.701 Y50.57 E.07453
G1 E-1.4 F2400
;WIPE_START
G1 F7200
G1 X34.033 Y49.898 E-.47252
G1 X34.335 Y49.837 E-.09748
;WIPE_END
G1 E-.03 F2400
G1 X64.378 Y66.283 F9000
G1 E2 F1800
;TYPE:Perimeter
;WIDTH:0.981535
G1 F1200
G1 X64.423 Y66.209 E.00981
;WIDTH:0.937593
G1 X64.467 Y66.136 E.00934
;WIDTH:0.893651
G1 X64.512 Y66.063 E.00887
;WIDTH:0.849709
G1 X64.557 Y65.99 E.0084
;WIDTH:0.805767
G1 X64.602 Y65.917 E.00793
;WIDTH:0.761825
G1 X64.646 Y65.844 E.00746
;WIDTH:0.717883
G1 X64.691 Y65.77 E.00699
;WIDTH:0.673941
G1 X64.736 Y65.697 E.00652
;WIDTH:0.63
G1 X64.897 Y65.505 E.01772
G1 X65.218 Y64.911 E.04761
G1 X65.745 Y63.584 E.10071
G1 X65.956 Y62.994 E.04419
;WIDTH:0.644405
G1 X66.227 Y62.259 E.05667
G1 X66.217 Y62.437 E.01286
;WIDTH:0.640025
G1 X66.284 Y62.994 E.04028
;WIDTH:0.63
G1 X66.512 Y63.496 E.03894
G1 X66.873 Y63.849 E.0356
G1 X67.217 Y64.009 E.02679
G1 X67.633 Y64.064 E.0296
G1 X68.843 Y64.053 E.08535
G1 X67.855 Y64.774 E.08632
G1 X67.363 Y65.089 E.04125
G1 X66.749 Y65.445 E.05005
G1 X66.137 Y65.752 E.04833
G1 X65.095 Y66.213 E.08032
;WIDTH:0.673941
G1 X65.006 Y66.222 E.00685
;WIDTH:0.717883
G1 X64.916 Y66.231 E.00734
;WIDTH:0.761825
G1 X64.826 Y66.239 E.00784
;WIDTH:0.805767
G1 X64.737 Y66.248 E.00833
;WIDTH:0.849709
G1 X64.647 Y66.257 E.00883
;WIDTH:0.893651
G1 X64.557 Y66.265 E.00932
;WIDTH:0.937593
G1 X64.468 Y66.274 E.00981
;WIDTH:0.981535
G1 X64.467 Y66.274 E.00001
G1 E-1.4 F2400
;WIPE_START
G1 F7200
G1 X64.423 Y66.209 E-.02488
G1 X64.467 Y66.136 E-.02715
G1 X64.512 Y66.063 E-.02715
G1 X64.557 Y65.99 E-.02715
G1 X64.602 Y65.917 E-.02715
G1 X64.646 Y65.844 E-.02715
G1 X64.691 Y65.77 E-.02715
G1 X64.736 Y65.697 E-.02715
G1 X64.897 Y65.505 E-.07956
G1 X65.218 Y64.911 E-.21372
G1 X65.29 Y64.73 E-.06177
;WIPE_END
G1 E-.03 F2400
G1 X62.721 Y63.117 F9000
G1 E2 F1800
;WIDTH:0.868531
G1 F1200
G1 X62.707 Y63.058 E.00608
;WIDTH:0.819315
G1 X62.692 Y62.999 E.00571
;WIDTH:0.770099
G1 X62.678 Y62.941 E.00534
;WIDTH:0.720883
G1 X62.663 Y62.882 E.00496
;WIDTH:0.671668
G1 X62.648 Y62.823 E.00459
;WIDTH:0.622452
G1 X62.634 Y62.764 E.00422
;WIDTH:0.573236
G1 X62.619 Y62.705 E.00385
;WIDTH:0.567801
G1 X62.636 Y62.641 E.00419
;WIDTH:0.611581
G1 X62.652 Y62.576 E.00455
;WIDTH:0.655361
G1 X62.668 Y62.511 E.00492
;WIDTH:0.699141
G1 X62.685 Y62.447 E.00528
;WIDTH:0.742921
G1 X62.701 Y62.382 E.00565
;WIDTH:0.786701
G1 X62.718 Y62.317 E.00601
;WIDTH:0.830481
G1 X62.734 Y62.253 E.00637
G1 X62.776 Y62.299 E.00602
;WIDTH:0.791015
G1 X62.818 Y62.346 E.00571
;WIDTH:0.75155
G1 X62.86 Y62.393 E.0054
;WIDTH:0.712085
G1 X62.92 Y62.47 E.00787
;WIDTH:0.665069
G1 X62.979 Y62.547 E.0073
;WIDTH:0.618053
G1 X63.038 Y62.625 E.00673
;WIDTH:0.571037
G1 X63.098 Y62.702 E.00615
;WIDTH:0.524021
G1 X63.057 Y62.804 E.00634
;WIDTH:0.573236
G1 X63.009 Y62.849 E.00416
;WIDTH:0.622452
G1 X62.961 Y62.894 E.00456
;WIDTH:0.671668
G1 X62.913 Y62.938 E.00496
;WIDTH:0.720883
G1 X62.865 Y62.983 E.00537
;WIDTH:0.770099
G1 X62.817 Y63.028 E.00577
;WIDTH:0.819315
G1 X62.787 Y63.056 E.00387
G1 X62.484 Y61.612 F9000
;WIDTH:0.856129
G1 F1200
G1 X62.377 Y61.483 E.01658
;WIDTH:0.806205
G1 X62.27 Y61.353 E.01554
;WIDTH:0.756282
G1 X62.163 Y61.224 E.01449
;WIDTH:0.706359
G1 X62.056 Y61.094 E.01345
;WIDTH:0.656435
G1 X61.949 Y60.965 E.0124
;WIDTH:0.606512
G1 X61.842 Y60.835 E.01136
;WIDTH:0.556589
G1 X61.768 Y60.712 E.00886
G1 X62.098 Y60.112 E.04206
G1 X62.285 Y60.625 E.03352
;WIDTH:0.606512
G1 X62.318 Y60.789 E.01136
;WIDTH:0.656435
G1 X62.351 Y60.954 E.0124
;WIDTH:0.706359
G1 X62.384 Y61.119 E.01345
;WIDTH:0.756282
G1 X62.418 Y61.283 E.01449
;WIDTH:0.806205
G1 X62.451 Y61.448 E.01554
;WIDTH:0.856129
G1 X62.466 Y61.524 E.0077
G1 E-1.4 F2400
;WIPE_START
G1 F7200
G1 X62.377 Y61.483 E-.0311
G1 X62.27 Y61.353 E-.05318
G1 X62.163 Y61.224 E-.05318
G1 X62.056 Y61.094 E-.05318
G1 X61.949 Y60.965 E-.05318
G1 X61.842 Y60.835 E-.05318
G1 X61.768 Y60.712 E-.04571
G1 X62.098 Y60.112 E-.21694
G1 X62.109 Y60.142 E-.01035
;WIPE_END
G1 E-.03 F2400
G1 X58.212 Y62.354 F9000
G1 E2 F1800
;TYPE:External perimeter
;WIDTH:0.899941
G1 F1200
G1 X58.154 Y62.7 E.03656
G1 E-1.4 F2400
;WIPE_START
G1 F7200
G1 X58.212 Y62.354 E-.11108
;WIPE_END
G1 E-.48892 F2400
G1 X66.436 Y61.661 F9000
G1 E2 F1800
;TYPE:Perimeter
;WIDTH:0.634525
G1 F1200
G1 X66.559 Y61.26 E.02984
;WIDTH:0.597875
G1 X66.682 Y60.859 E.02792
;WIDTH:0.561226
G1 X66.918 Y60.036 E.05303
G1 X67.183 Y60.179 E.01868
G1 X67.505 Y60.286 E.02101
G1 X67.267 Y60.555 E.02231
;WIDTH:0.564741
G1 X66.765 Y61.197 E.05083
;WIDTH:0.599633
G1 X66.6 Y61.429 E.019
;WIDTH:0.634525
G1 X66.488 Y61.588 E.01384
G1 E-1.4 F2400
;WIPE_START
G1 F7200
G1 X66.559 Y61.26 E-.10619
G1 X66.682 Y60.859 E-.13289
G1 X66.918 Y60.036 E-.27096
G1 X67.084 Y60.126 E-.05995
;WIPE_END
G1 E-.03 F2400
G1 X70.747 Y63.097 F9000
G1 E2 F1800
;TYPE:External perimeter
;WIDTH:0.726129
G1 F1200
G1 X70.585 Y63.27 E.01962
G1 E-1.4 F2400
;WIPE_START
G1 F7200
G1 X70.747 Y63.097 E-.07528
;WIPE_END
G1 E-.52472 F2400
G1 X70.44 Y61.146 F9000
G1 E2 F1800
;TYPE:Perimeter
;WIDTH:0.827119
G1 F1200
G1 X70.792 Y60.719 E.05269
;WIDTH:0.824721
G1 X71.095 Y60.276 E.05089
;WIDTH:0.824024
G1 X71.349 Y59.832 E.04847
G1 X71.479 Y59.44 E.03912
G1 X71.528 Y59.028 E.03931
G1 X71.758 Y59.379 E.03972
G1 X72.075 Y59.92 E.0594
G1 X72.079 Y60.048 E.0121
G1 X72.017 Y60.192 E.01488
G1 X71.72 Y60.699 E.05569
;WIDTH:0.824721
G1 X71.422 Y61.145 E.05089
;WIDTH:0.827119
G1 X71.129 Y61.586 E.05039
G1 X70.849 Y61.328 E.03621
G1 X70.522 Y61.183 E.03407
G1 E-1.4 F2400
;WIPE_START
G1 F7200
G1 X70.792 Y60.719 E-.16995
G1 X71.095 Y60.276 E-.16993
G1 X71.349 Y59.832 E-.16198
G1 X71.417 Y59.628 E-.06813
;WIPE_END
G1 E-.03 F2400
G1 X69.229 Y57.501 F9000
G1 E2 F1800
;WIDTH:0.63
G1 F1200
G1 X68.059 Y57.502 E.08252
G1 X67.51 Y57.567 E.03906
G1 X67.24 Y57.65 E.01986
G1 X66.765 Y57.996 E.04145
G1 X66.49 Y57.726 E.0272
G1 X66.055 Y57.567 E.03265
G1 X65.666 Y57.555 E.02748
G1 X65.08 Y57.816 E.04521
G1 X64.838 Y58.049 E.02378
G1 X64.557 Y58.482 E.03638
G1 X64.339 Y58.079 E.03231
G1 X64.038 Y57.802 E.02886
G1 X63.568 Y57.597 E.03618
G1 X63.285 Y57.541 E.02036
G1 X62.839 Y57.565 E.03151
G1 X62.445 Y57.714 E.02973
G1 X62.149 Y57.976 E.02789
G1 X61.842 Y57.702 E.02905
G1 X61.589 Y57.597 E.01932
G1 X61.238 Y57.552 E.02492
G1 X60.791 Y57.63 E.03202
G1 X60.358 Y57.887 E.03554
G1 X60.18 Y58.057 E.01735
G1 X60.025 Y57.866 E.01735
G1 X59.555 Y57.602 E.03801
G1 X59.111 Y57.525 E.03182
G1 X58.819 Y57.543 E.0206
G1 X58.349 Y57.73 E.0357
G1 X58.002 Y58.034 E.03256
G1 X57.83 Y58.281 E.02121
G1 X57.693 Y58.787 E.03698
G1 X57.703 Y59.035 E.01749
G1 X57.768 Y59.372 E.02422
G1 X57.986 Y59.886 E.03938
G1 X58.49 Y60.766 E.07156
G1 X58.268 Y61.165 E.03223
G1 X58.201 Y61.06 E.00879
G1 X57.809 Y60.721 E.03657
G1 X57.477 Y60.55 E.0263
G1 X57.018 Y60.438 E.03338
G1 X56.52 Y60.496 E.03535
G1 X56.588 Y59.887 E.04323
G1 X56.567 Y59.447 E.03111
G1 X56.513 Y58.94 E.03593
G1 X56.295 Y58.159 E.0572
G1 X56.111 Y57.788 E.0292
G1 X55.716 Y57.167 E.05191
G1 X55.179 Y56.675 E.05139
G1 X54.648 Y56.375 E.04304
G1 X54.024 Y56.182 E.04607
G1 X53.349 Y56.089 E.04808
G1 X51.752 Y56.055 E.1127
G1 X51.363 Y56.088 E.0275
G1 X51.076 Y56.171 E.02113
G1 X50.599 Y56.42 E.03794
G1 X50.383 Y56.654 E.02249
G1 X50.169 Y57.074 E.03327
G1 X50.067 Y56.902 E.01416
G1 X49.773 Y56.569 E.03132
G1 X49.413 Y56.295 E.03195
G1 X48.926 Y56.071 E.03779
G1 X48.311 Y55.928 E.04456
G1 X47.642 Y55.893 E.04725
G1 X47.029 Y55.964 E.04354
G1 X46.515 Y56.121 E.03788
G1 X46.273 Y56.24 E.01905
G1 X45.775 Y56.613 E.0439
G1 X45.673 Y56.492 E.01115
G1 X45.375 Y56.257 E.02673
G1 X45.029 Y56.127 E.02608
G1 X44.64 Y56.079 E.02768
G1 X43.446 Y56.064 E.08423
G1 X41.536 Y56.074 E.13476
G1 X40.855 Y56.043 E.04804
G1 X40.351 Y56.166 E.03659
G1 X40.08 Y56.299 E.02135
G1 X39.714 Y56.711 E.03881
G1 X39.633 Y56.623 E.00843
G1 X39.209 Y56.295 E.03783
G1 X38.741 Y56.071 E.03657
G1 X38.132 Y55.928 E.04414
G1 X37.519 Y55.896 E.04329
G1 X36.896 Y55.957 E.04419
G1 X36.36 Y56.125 E.0396
G1 X35.821 Y56.356 E.04142
G1 X35.345 Y56.699 E.04135
G1 X35.081 Y56.98 E.02721
G1 X35.087 Y55.233 E.12324
G1 X35.167 Y54.74 E.03526
G1 X35.32 Y54.519 E.01897
G1 X35.562 Y54.375 E.01983
G1 X35.855 Y54.298 E.02142
G1 X59.205 Y52.871 E1.65033
G1 X60.057 Y52.847 E.06011
G1 X60.903 Y52.872 E.0597
G1 X61.842 Y52.961 E.06657
G1 X62.671 Y53.094 E.0592
G1 X63.56 Y53.294 E.06428
G1 X64.43 Y53.549 E.06399
G1 X65.416 Y53.916 E.07418
G1 X66.089 Y54.216 E.05201
G1 X67.087 Y54.746 E.07973
G1 X67.977 Y55.31 E.07434
G1 X68.641 Y55.797 E.05807
G1 X69.399 Y56.431 E.0697
G1 X70.038 Y57.043 E.06246
G1 X70.575 Y57.627 E.05598
G1 X70.333 Y57.551 E.0179
G1 X69.855 Y57.5 E.03391
G1 X69.319 Y57.501 E.03781
G1 E-1.4 F2400
;WIPE_START
G1 F7200
G1 X68.059 Y57.502 E-.39891
G1 X67.523 Y57.566 E-.17109
;WIPE_END
G1 E-.03 F2400
G1 X38.542 Y60.593 F9000
G1 E2 F1800
G1 F1200
G1 X38.407 Y60.608 E.00957
G1 X37.986 Y60.808 E.03286
G1 X37.684 Y61.062 E.0279
G1 X37.46 Y61.063 E.01575
G1 X37.258 Y60.965 E.01587
G1 X37.1 Y60.578 E.02948
G1 X37.052 Y60.024 E.03927
G1 X37.068 Y59.575 E.03164
G1 X37.185 Y59.074 E.03635
G1 X37.288 Y58.951 E.01132
G1 X37.525 Y58.864 E.0178
G1 X38.108 Y59.176 E.04667
G1 X38.598 Y59.347 E.03659
G1 X38.84 Y59.358 E.01712
G1 X39.343 Y59.268 E.03598
G1 X39.661 Y59.093 E.02566
G1 X39.896 Y58.875 E.02259
G1 X40.022 Y58.672 E.0169
G1 X40.386 Y58.912 E.03079
G1 X40.637 Y58.969 E.01809
G1 X41.31 Y58.977 E.04754
G1 X41.313 Y60.875 E.13388
;WIDTH:0.676135
G1 X41.29 Y61.016 E.01093
;WIDTH:0.72227
G1 X41.268 Y61.158 E.01176
;WIDTH:0.768406
G1 X41.246 Y61.3 E.01258
;WIDTH:0.814541
G1 X41.224 Y61.441 E.01341
;WIDTH:0.860677
G1 X41.202 Y61.583 E.01423
G1 X41.215 Y61.922 E.03372
;WIDTH:0.837772
G1 X41.221 Y62.256 E.03223
;WIDTH:0.79751
G1 X41.226 Y62.59 E.03055
;WIDTH:0.757248
G1 X41.27 Y62.714 E.01132
;WIDTH:0.714832
G1 X41.313 Y62.837 E.01063
;WIDTH:0.672416
G1 X41.356 Y62.961 E.00993
;WIDTH:0.63
G1 X41.579 Y63.386 E.03382
G1 X41.903 Y63.656 E.02979
G1 X42.234 Y63.808 E.02567
G1 X42.646 Y63.888 E.0296
G1 X43.074 Y63.847 E.03039
G1 X43.368 Y63.751 E.02176
G1 X43.713 Y63.528 E.02902
G1 X43.939 Y63.271 E.02416
G1 X44.086 Y62.945 E.0252
;WIDTH:0.674964
G1 X44.14 Y62.831 E.00964
;WIDTH:0.719928
G1 X44.194 Y62.716 E.01035
;WIDTH:0.764892
G1 X44.249 Y62.602 E.01106
;WIDTH:0.809857
G1 X44.303 Y62.488 E.01177
;WIDTH:0.850993
G1 X44.333 Y62.322 E.01653
;WIDTH:0.871068
G1 X44.34 Y61.735 E.05906
G1 X44.315 Y61.602 E.01364
;WIDTH:0.822854
G1 X44.291 Y61.468 E.01282
;WIDTH:0.77464
G1 X44.266 Y61.335 E.01201
;WIDTH:0.726427
G1 X44.241 Y61.202 E.01119
;WIDTH:0.678213
G1 X44.217 Y61.069 E.01038
;WIDTH:0.63
G1 X44.207 Y58.984 E.1471
G1 X44.324 Y58.986 E.00824
G1 X44.91 Y58.892 E.04186
G1 X45.339 Y58.762 E.03166
G1 X45.605 Y58.528 E.02502
G1 X45.754 Y58.717 E.01697
G1 X46.173 Y58.981 E.03497
G1 X46.01 Y59.287 E.02444
G1 X45.935 Y59.793 E.03612
G1 X45.975 Y60.108 E.02239
G1 X46.162 Y60.554 E.03412
G1 X46.358 Y60.754 E.01977
G1 X46.064 Y60.848 E.02178
G1 X45.758 Y61.024 E.02494
G1 X45.443 Y61.374 E.03322
;WIDTH:0.678213
G1 X45.383 Y61.459 E.00792
;WIDTH:0.726427
G1 X45.322 Y61.543 E.00855
;WIDTH:0.77464
G1 X45.262 Y61.627 E.00917
;WIDTH:0.822854
G1 X45.202 Y61.711 E.00979
;WIDTH:0.871068
G1 X45.142 Y61.795 E.01041
G1 X45.111 Y62.153 E.03613
;WIDTH:0.845935
G1 X45.165 Y62.493 E.03354
;WIDTH:0.809857
G1 X45.236 Y62.623 E.01376
;WIDTH:0.764892
G1 X45.307 Y62.753 E.01293
;WIDTH:0.719928
G1 X45.377 Y62.883 E.0121
;WIDTH:0.674964
G1 X45.448 Y63.013 E.01127
;WIDTH:0.63
G1 X45.73 Y63.371 E.03213
G1 X46.157 Y63.68 E.03722
G1 X46.651 Y63.887 E.03775
G1 X47.279 Y64.017 E.04526
G1 X47.789 Y64.035 E.03604
G1 X48.314 Y63.994 E.03713
G1 X48.844 Y63.861 E.03856
G1 X49.419 Y63.576 E.04527
G1 X49.884 Y63.193 E.04249
G1 X50.211 Y62.782 E.03708
G1 X50.366 Y63.214 E.03242
G1 X50.53 Y63.429 E.01906
G1 X50.808 Y63.693 E.027
G1 X51.271 Y63.86 E.03479
G1 X51.591 Y63.895 E.02266
G1 X52.128 Y63.857 E.038
G1 X52.892 Y63.864 E.05391
G1 X53.538 Y63.82 E.04567
G1 X54.281 Y63.663 E.0536
G1 X54.523 Y63.572 E.0182
G1 X55.081 Y63.226 E.04632
G1 X55.129 Y63.352 E.00947
G1 X55.335 Y63.68 E.02734
G1 X55.705 Y63.994 E.03422
G1 X56.099 Y64.215 E.03186
G1 X56.642 Y64.337 E.03925
G1 X57.065 Y64.309 E.02994
G1 X57.349 Y64.233 E.02075
G1 X57.879 Y63.958 E.04213
G1 X58.169 Y63.612 E.03184
G1 X58.315 Y63.746 E.01397
G1 X58.628 Y63.939 E.02592
G1 X58.929 Y64.022 E.02203
G1 X59.368 Y63.974 E.03114
G1 X59.678 Y63.827 E.02419
G1 X60.104 Y63.476 E.03892
G1 X60.228 Y63.636 E.0143
G1 X60.414 Y63.779 E.01653
G1 X60.794 Y63.987 E.03055
G1 X61.105 Y64.059 E.02255
;WIDTH:0.635436
G1 X61.605 Y64.027 E.03567
;WIDTH:0.641034
G1 X61.863 Y63.942 E.01957
G1 X61.812 Y64.004 E.00576
;WIDTH:0.639461
G1 X61.474 Y64.363 E.03534
;WIDTH:0.63
G1 X61.41 Y64.505 E.01097
G1 X61.312 Y64.902 E.0289
G1 X61.339 Y65.294 E.0277
G1 X61.484 Y65.739 E.03303
G1 X61.704 Y66.078 E.02853
G1 X61.967 Y66.335 E.02593
G1 X62.069 Y66.389 E.00818
;WIDTH:0.670982
G1 X62.353 Y66.511 E.0234
;WIDTH:0.711965
G1 X62.638 Y66.633 E.02498
;WIDTH:0.750472
G1 X62.733 Y66.652 E.00828
;WIDTH:0.788979
G1 X62.828 Y66.671 E.00875
;WIDTH:0.827486
G1 X62.922 Y66.69 E.00921
;WIDTH:0.865993
G1 X63.017 Y66.709 E.00968
G1 X62.925 Y66.749 E.0101
;WIDTH:0.827486
G1 X62.832 Y66.789 E.00961
;WIDTH:0.788979
G1 X62.739 Y66.829 E.00913
;WIDTH:0.750472
G1 X62.647 Y66.869 E.00864
;WIDTH:0.711965
G1 X62.229 Y66.956 E.03446
;WIDTH:0.670982
G1 X61.811 Y67.043 E.03228
;WIDTH:0.63
G1 X60.891 Y67.129 E.06519
G1 X59.928 Y67.154 E.06798
G1 X58.719 Y67.1 E.08539
G1 X35.769 Y65.693 E1.62212
G1 X35.393 Y65.556 E.02824
G1 X35.162 Y65.243 E.0274
G1 X35.088 Y64.913 E.02391
G1 X35.075 Y62.962 E.13762
G1 X35.686 Y63.487 E.05682
G1 X36.512 Y63.878 E.06448
G1 X37.217 Y64.015 E.05063
G1 X38.215 Y63.988 E.07043
G1 X38.749 Y63.855 E.03883
G1 X39.186 Y63.665 E.0336
G1 X39.545 Y63.422 E.03063
G1 X39.858 Y63.119 E.03073
G1 X40.007 Y62.909 E.01813
;WIDTH:0.672067
G1 X40.091 Y62.778 E.01183
;WIDTH:0.714134
G1 X40.175 Y62.647 E.01264
;WIDTH:0.756201
G1 X40.26 Y62.516 E.01346
;WIDTH:0.798268
G1 X40.344 Y62.384 E.01428
;WIDTH:0.840335
G1 X40.428 Y62.253 E.0151
G1 X40.445 Y62.089 E.01597
