; HEADER_BLOCK_START
; BambuStudio 01.04.00.18
; model printing time: 48m 37s; total estimated time: 48m 38s
; HEADER_BLOCK_END

; CONFIG_BLOCK_START
; additional_cooling_fan_speed = 70
; auxiliary_fan = 0
; bed_custom_model = 
; bed_custom_texture = 
; bed_exclude_area = 0x0
; bed_temperature_difference = 10
; before_layer_change_gcode = 
; bottom_shell_layers = 3
; bottom_shell_thickness = 0
; bottom_surface_pattern = monotonic
; bridge_angle = 0
; bridge_flow = 0.95
; bridge_no_support = 0
; bridge_speed = 50
; brim_object_gap = 0.1
; brim_type = auto_brim
; brim_width = 5
; change_filament_gcode = 
; close_fan_the_first_x_layers = 1
; cool_plate_temp = 60
; cool_plate_temp_initial_layer = 60
; curr_bed_type = Cool Plate
; default_acceleration = 7000
; default_filament_colour = ""
; default_filament_profile = "Voron Generic ABS"
; default_print_profile = 0.20mm Standard @Voron
; deretraction_speed = 30
; detect_narrow_internal_solid_infill = 1
; detect_overhang_wall = 1
; detect_thin_wall = 0
; different_settings_to_system = ;;machine_max_acceleration_e;machine_max_acceleration_extruding;machine_max_acceleration_x;machine_max_acceleration_y;machine_max_acceleration_z;printable_height
; draft_shield = disabled
; elefant_foot_compensation = 0
; enable_arc_fitting = 1
; enable_overhang_bridge_fan = 1
; enable_overhang_speed = 1
; enable_prime_tower = 0
; enable_support = 0
; enforce_support_layers = 0
; eng_plate_temp = 60
; eng_plate_temp_initial_layer = 60
; ensure_vertical_shell_thickness = 1
; extruder_clearance_height_to_lid = 140
; extruder_clearance_height_to_rod = 36
; extruder_clearance_max_radius = 68
; extruder_clearance_radius = 65
; extruder_colour = #FCE94F
; extruder_offset = 0x0
; fan_cooling_layer_time = 100
; fan_max_speed = 100
; fan_min_speed = 100
; filament_colour = #FFFFFF
; filament_cost = 20
; filament_density = 1.24
; filament_diameter = 1.75
; filament_end_gcode = "; filament end gcode \n"
; filament_flow_ratio = 0.98
; filament_ids = GFL99
; filament_is_support = 0
; filament_max_volumetric_speed = 12
; filament_minimal_purge_on_wipe_tower = 15
; filament_settings_id = "Voron Generic PLA"
; filament_soluble = 0
; filament_start_gcode = "; filament start gcode\n"
; filament_type = PLA
; filament_vendor = Generic
; filename_format = {input_filename_base}_{filament_type[0]}_{print_time}.gcode
; flush_into_infill = 0
; flush_into_objects = 0
; flush_into_support = 1
; flush_multiplier = 1
; flush_volumes_matrix = 0
; flush_volumes_vector = 140,140
; full_fan_speed_layer = 0
; fuzzy_skin = none
; fuzzy_skin_point_distance = 0.8
; fuzzy_skin_thickness = 0.3
; gap_infill_speed = 100
; gcode_add_line_number = 0
; gcode_flavor = marlin
; host_type = octoprint
; hot_plate_temp = 60
; hot_plate_temp_initial_layer = 60
; independent_support_layer_height = 1
; infill_combination = 0
; infill_direction = 45
; infill_wall_overlap = 25%
; inherits_group = ;;"Voron 0.1 0.4 nozzle"
; initial_layer_acceleration = 500
; initial_layer_infill_speed = 105
; initial_layer_line_width = 0.5
; initial_layer_print_height = 0.2
; initial_layer_speed = 50
; inner_wall_line_width = 0.45
; inner_wall_speed = 200
; interface_shells = 0
; internal_bridge_support_thickness = 0
; internal_solid_infill_line_width = 0.4
; internal_solid_infill_speed = 200
; ironing_flow = 10%
; ironing_spacing = 0.15
; ironing_speed = 30
; ironing_type = no ironing
; layer_change_gcode = 
; layer_height = 0.2
; line_width = 0.4
; machine_end_gcode = PRINT_END
; machine_load_filament_time = 0
; machine_max_acceleration_e = 4000,5000
; machine_max_acceleration_extruding = 15000,20000
; machine_max_acceleration_retracting = 5000,5000
; machine_max_acceleration_travel = 9000,9000
; machine_max_acceleration_x = 10000,20000
; machine_max_acceleration_y = 10000,20000
; machine_max_acceleration_z = 400,200
; machine_max_jerk_e = 2.5,2.5
; machine_max_jerk_x = 9,9
; machine_max_jerk_y = 9,9
; machine_max_jerk_z = 0.2,0.4
; machine_max_speed_e = 25,25
; machine_max_speed_x = 500,200
; machine_max_speed_y = 500,200
; machine_max_speed_z = 12,12
; machine_min_extruding_rate = 0,0
; machine_min_travel_rate = 0,0
; machine_pause_gcode = PAUSE\n
; machine_start_gcode = ; M190 S0\n; M104 S0\nPRINT_START EXTRUDER=[nozzle_temperature_initial_layer] BED=[bed_temperature_initial_layer_single]\n; You can use following code instead if your PRINT_START macro support Chamber and print area bedmesh\n; PRINT_START EXTRUDER=[nozzle_temperature_initial_layer] BED=[bed_temperature_initial_layer_single] PRINT_MIN={first_layer_print_min[0]},{first_layer_print_min[1]} PRINT_MAX={first_layer_print_max[0]},{first_layer_print_max[1]}
; machine_unload_filament_time = 0
; max_bridge_length = 10
; max_layer_height = 0.28
; max_travel_detour_distance = 0
; min_bead_width = 85%
; min_feature_size = 25%
; min_layer_height = 0.08
; minimum_sparse_infill_area = 15
; nozzle_diameter = 0.4
; nozzle_hrc = 0
; nozzle_temperature = 220
; nozzle_temperature_initial_layer = 220
; nozzle_temperature_range_high = 230
; nozzle_temperature_range_low = 190
; nozzle_type = undefine
; nozzle_volume = 0
; only_one_wall_top = 0
; ooze_prevention = 0
; outer_wall_acceleration = 500
; outer_wall_line_width = 0.4
; outer_wall_speed = 120
; overhang_1_4_speed = 0
; overhang_2_4_speed = 50
; overhang_3_4_speed = 30
; overhang_4_4_speed = 10
; overhang_fan_speed = 100
; overhang_fan_threshold = 50%
; prime_tower_brim_width = 3
; prime_tower_width = 35
; prime_volume = 45
; print_compatible_printers = "Voron 2.4 250 0.4 nozzle";"Voron 2.4 300 0.4 nozzle";"Voron 2.4 350 0.4 nozzle";"Voron Trident 250 0.4 nozzle";"Voron Trident 300 0.4 nozzle";"Voron Trident 350 0.4 nozzle";"Voron 0.1 0.4 nozzle"
; print_host = 
; print_sequence = by layer
; print_settings_id = 0.20mm Standard @Voron
; printable_area = 0x0,120x0,120x120,0x120
; printable_height = 160
; printer_model = Voron 0.1
; printer_settings_id = Rook
; printer_technology = FFF
; printer_variant = 0.4
; printhost_apikey = 
; printhost_authorization_type = key
; printhost_cafile = 
; printhost_password = 
; printhost_port = 
; printhost_ssl_ignore_revoke = 0
; printhost_user = 
; raft_contact_distance = 0.1
; raft_expansion = 1.5
; raft_first_layer_density = 90%
; raft_first_layer_expansion = 2
; raft_layers = 0
; reduce_crossing_wall = 0
; reduce_fan_stop_start_freq = 1
; reduce_infill_retraction = 1
; required_nozzle_HRC = 0
; resolution = 0.012
; retract_before_wipe = 70%
; retract_length_toolchange = 2
; retract_restart_extra = 0
; retract_restart_extra_toolchange = 0
; retract_when_changing_layer = 1
; retraction_length = 0.8
; retraction_minimum_travel = 1
; retraction_speed = 30
; scan_first_layer = 0
; seam_position = aligned
; silent_mode = 0
; single_extruder_multi_material = 1
; skirt_distance = 2
; skirt_height = 1
; skirt_loops = 0
; slice_closing_radius = 0.049
; slicing_mode = regular
; slow_down_for_layer_cooling = 1
; slow_down_layer_time = 8
; slow_down_min_speed = 20
; solid_infill_filament = 1
; sparse_infill_density = 15%
; sparse_infill_filament = 1
; sparse_infill_line_width = 0.45
; sparse_infill_pattern = grid
; sparse_infill_speed = 200
; spiral_mode = 0
; standby_temperature_delta = -5
; support_angle = 0
; support_base_pattern = rectilinear
; support_base_pattern_spacing = 2.5
; support_bottom_interface_spacing = 0.5
; support_bottom_z_distance = 0.2
; support_critical_regions_only = 0
; support_expansion = 0
; support_filament = 0
; support_interface_bottom_layers = 2
; support_interface_filament = 0
; support_interface_loop_pattern = 0
; support_interface_pattern = rectilinear
; support_interface_spacing = 0.5
; support_interface_speed = 80
; support_interface_top_layers = 2
; support_line_width = 0.4
; support_object_xy_distance = 0.35
; support_on_build_plate_only = 0
; support_speed = 150
; support_style = grid
; support_threshold_angle = 30
; support_top_z_distance = 0.2
; support_type = normal(auto)
; temperature_vitrification = 60
; template_custom_gcode = 
; textured_plate_temp = 60
; textured_plate_temp_initial_layer = 60
; thick_bridges = 0
; timelapse_type = 0
; top_shell_layers = 4
; top_shell_thickness = 0.8
; top_surface_acceleration = 3000
; top_surface_line_width = 0.4
; top_surface_pattern = monotonicline
; top_surface_speed = 100
; travel_speed = 350
; travel_speed_z = 0
; tree_support_branch_angle = 45
; tree_support_branch_diameter = 5
; tree_support_branch_distance = 5
; tree_support_wall_count = 0
; upward_compatible_machine = 
; wall_distribution_count = 1
; wall_filament = 1
; wall_generator = classic
; wall_infill_order = inner wall/outer wall/infill
; wall_loops = 2
; wall_transition_angle = 10
; wall_transition_filter_deviation = 25%
; wall_transition_length = 100%
; wipe = 1
; wipe_distance = 2
; wipe_tower_no_sparse_layers = 0
; wipe_tower_rotation_angle = 0
; wipe_tower_x = 155
; wipe_tower_y = 240
; xy_contour_compensation = 0
; xy_hole_compensation = 0
; z_hop = 0.4
; CONFIG_BLOCK_END

; EXECUTABLE_BLOCK_START
M73 P0 R48
M201 X10000 Y10000 Z400 E4000
M203 X500 Y500 Z12 E25
M204 P15000 R5000 T15000
M205 X9.00 Y9.00 Z0.20 E2.50
M106 S0
M106 P2 S0
M190 S60 ; set bed temperature and wait for it to be reached
M104 S220 ; set nozzle temperature
; FEATURE: Custom
; M190 S0
; M104 S0
PRINT_START EXTRUDER=220 BED=60
; You can use following code instead if your PRINT_START macro support Chamber and print area bedmesh
; PRINT_START EXTRUDER=220 BED=60 PRINT_MIN=34.1278,51.9017 PRINT_MAX=73.1181,68.0973
M109 S220 ; set nozzle temperature and wait for it to be reached
G90
G21
M83 ; only support relative e
; filament start gcode
M981 S1 P20000 ;open spaghetti detector
M106 S0
M106 P2 S0
; CHANGE_LAYER
; Z_HEIGHT: 0.2
; LAYER_HEIGHT: 0.2
G1 E-.8 F1800
M204 S500
G1 X60.189 Y59.34 Z.4 F21000
G1 Z.2
G1 E.8 F1800
; FEATURE: Outer wall
; LINE_WIDTH: 0.5
G1 F3000
G3 X60.38 Y58.91 I12.545 J5.329 E.01751
G3 X61.127 Y58.238 I1.115 J.487 E.03858
G3 X61.811 Y59.254 I.061 J.697 E.05552
G3 X61.217 Y60.258 I-14.295 J-7.769 E.04347
G2 X61.041 Y60.808 I.597 J.494 E.02203
G1 X61.049 Y60.838 E.00116
G2 X61.556 Y61.725 I33.605 J-18.62 E.03806
G3 X61.928 Y62.461 I-1.763 J1.353 E.03091
G3 X60.629 Y63.032 I-.698 J.174 E.07516
G3 X60.108 Y62.115 I10.92 J-6.814 E.03929
G3 X59.568 Y63.045 I-3.443 J-1.377 E.04018
G3 X58.469 Y63.04 I-.548 J-.394 E.04784
G3 X58.457 Y62.24 I.64 J-.41 E.03141
G3 X58.985 Y61.313 I32.997 J18.171 E.03974
G2 X59.345 Y60.784 I-10.236 J-7.358 E.02383
G2 X59.242 Y60.569 I-.424 J.071 E.00899
G3 X58.619 Y59.521 I13.943 J-8.996 E.04544
G3 X58.418 Y58.924 I1.526 J-.848 E.02359
G3 X59.551 Y58.378 I.695 J-.006 E.05852
G3 X60.167 Y59.284 I-1.897 J1.953 E.04108
G1 X60.198 Y59.26 F21000
G1 E-.56 F1800
; WIPE_START
G1 F16800
G1 X60.38 Y58.91 E-.0491
G1 X60.544 Y58.652 E-.03482
G1 X60.734 Y58.448 E-.03179
G1 X60.861 Y58.351 E-.01824
G1 X60.991 Y58.281 E-.01682
G1 X61.127 Y58.238 E-.01628
G1 X61.274 Y58.231 E-.01671
G1 X61.412 Y58.261 E-.01619
G1 X61.544 Y58.325 E-.01665
G1 X61.617 Y58.393 E-.01139
; WIPE_END
G1 E-.012 F1800
G17
G3 Z.6 I-.731 J.973 P1  F21000
G1 X64.565 Y60.61 Z.6
G1 Z.2
G1 E.8 F1800
G1 F3000
G3 X64.899 Y59.602 I7.943 J2.07 E.03958
G3 X65.228 Y58.731 I4.2 J1.09 E.03474
G3 X65.745 Y58.248 I.923 J.47 E.02687
G1 X65.872 Y58.232 E.00479
G3 X66.536 Y59.301 I-.098 J.802 E.05376
G2 X66.227 Y60.022 I67.993 J29.646 E.02921
G3 X64.527 Y64.67 I-63.283 J-20.508 E.18441
G3 X63.323 Y65.791 I-1.68 J-.598 E.06365
G3 X62.541 Y65.824 I-.447 J-1.318 E.02957
G3 X62.055 Y64.859 I.354 J-.783 E.04348
G3 X62.562 Y64.434 I.606 J.207 E.02593
G2 X63.206 Y64.121 I-.111 J-1.05 E.0272
G2 X63.556 Y63.327 I-2.904 J-1.755 E.03243
G2 X63.8 Y62.727 I-1.673 J-1.03 E.02423
G1 X63.8 Y62.7 E.00101
G2 X63.538 Y62.029 I-2.732 J.681 E.0269
G2 X62.691 Y59.809 I-58.354 J20.997 E.0885
G3 X62.47 Y59.044 I2.719 J-1.199 E.02973
G3 X62.711 Y58.346 I.752 J-.131 E.02871
G3 X63.8 Y58.562 I.419 J.738 E.04508
G3 X64.059 Y59.288 I-1.861 J1.075 E.02888
G2 X64.542 Y60.554 I76.146 J-28.34 E.05047
G1 X64.572 Y60.53 F21000
G1 E-.56 F1800
; WIPE_START
G1 F16800
G1 X64.718 Y60.093 E-.05628
G1 X64.899 Y59.602 E-.05969
G1 X65.091 Y59.023 E-.06948
G1 X65.228 Y58.731 E-.0368
G1 X65.258 Y58.69 E-.00574
; WIPE_END
G1 E-.012 F1800
G17
G3 Z.6 I-.793 J.923 P1  F21000
G1 X68.969 Y61.88 Z.6
G1 Z.2
G1 E.8 F1800
G1 F3000
G3 X70.193 Y61.885 I.594 J4.135 E.04574
G3 X70.781 Y62.467 I-.098 J.687 E.033
G3 X70.234 Y63.299 I-.684 J.146 E.04127
G3 X68.904 Y63.333 I-.882 J-8.443 E.04962
G2 X67.821 Y63.35 I-.434 J6.954 E.0404
G3 X67.238 Y63.214 I-.11 J-.843 E.02276
G3 X67.09 Y61.98 I.707 J-.71 E.0499
G3 X67.661 Y61.153 I4.828 J2.722 E.03748
G3 X68.716 Y59.689 I34.302 J23.595 E.06721
G3 X67.747 Y59.705 I-.555 J-4.195 E.03617
G3 X67.225 Y59.53 I.112 J-1.192 E.02068
G3 X67.152 Y58.487 I.531 J-.561 E.04276
G3 X67.902 Y58.231 I.672 J.742 E.03036
G2 X70.048 Y58.236 I1.856 J-377.526 E.07991
G3 X70.6 Y58.557 I-.029 J.684 E.02475
G3 X70.427 Y59.803 I-1.085 J.484 E.04934
G2 X69.003 Y61.83 I64.535 J46.844 E.09229
G1 X69.044 Y61.851 F21000
G1 E-.56 F1800
; WIPE_START
G1 F16800
G1 X69.606 Y61.833 E-.06883
G1 X70.003 Y61.853 E-.04525
G1 X70.193 Y61.885 E-.02194
G1 X70.417 Y61.96 E-.02697
G1 X70.594 Y62.08 E-.02435
G1 X70.722 Y62.263 E-.02545
G1 X70.759 Y62.391 E-.01521
; WIPE_END
G1 E-.012 F1800
G17
G3 Z.6 I1.026 J.655 P1  F21000
G1 X72.386 Y59.843 Z.6
G1 Z.2
G1 E.8 F1800
; FEATURE: Inner wall
G1 F3000
G1 X72.403 Y59.919 E.00289
G3 X72.322 Y60.315 I-.618 J.081 E.01533
G3 X71.15 Y62.037 I-13.814 J-8.146 E.07762
G1 X70.912 Y61.748 E.01394
G2 X70.182 Y61.417 I-.971 J1.168 E.03022
G1 X69.881 Y61.375 E.01133
G2 X70.948 Y59.831 I-20.187 J-15.089 E.0699
G2 X70.855 Y58.128 I-1.276 J-.785 E.06761
G2 X69.863 Y57.773 I-.907 J.97 E.04038
G2 X67.625 Y57.792 I-.744 J42.754 E.08336
G2 X66.755 Y58.231 I.128 J1.336 E.03715
G2 X65.626 Y57.803 I-.903 J.678 E.04743
G2 X64.72 Y58.725 I.551 J1.448 E.04966
G1 X64.634 Y58.931 E.00834
G1 X64.437 Y58.917 E.00737
G2 X62.553 Y57.905 I-1.323 J.204 E.09223
G2 X62.146 Y58.275 I.682 J1.161 E.02065
G2 X61.046 Y57.784 I-.954 J.66 E.04714
G2 X60.169 Y58.375 I.45 J1.616 E.04009
G2 X59.071 Y57.773 I-1.092 J.691 E.04866
G2 X57.97 Y58.708 I.058 J1.185 E.05786
G2 X58.216 Y59.737 I1.686 J.14 E.04008
G2 X58.817 Y60.756 I17.311 J-9.511 E.04406
G2 X58.308 Y61.582 I4.173 J3.138 E.03619
G2 X56.769 Y60.658 I-1.591 J.905 E.0699
G2 X56.28 Y60.723 I.014 J1.973 E.01842
G2 X56.061 Y58.301 I-5.283 J-.744 E.0914
G2 X54.167 Y56.494 I-2.655 J.886 E.10144
G2 X52.165 Y56.341 I-1.594 J7.704 E.075
G2 X51.086 Y56.444 I-.293 J2.627 E.04065
G2 X50.386 Y57.4 I.375 J1.01 E.04673
G1 X50.391 Y57.751 E.01306
G1 X50.144 Y57.779 E.00924
G2 X48.739 Y56.29 I-1.889 J.376 E.08037
G2 X46.408 Y56.447 I-.943 J3.379 E.08871
G2 X45.756 Y56.946 I1.076 J2.084 E.03075
G2 X44.627 Y56.334 I-1.015 J.525 E.05081
G3 X42.227 Y56.338 I-1.335 J-75.366 E.08939
G3 X41.02 Y56.308 I-.459 J-5.916 E.04504
G2 X39.904 Y56.808 I-.154 J1.153 E.04797
G1 X39.745 Y57.072 E.01146
G2 X37.449 Y56.168 I-2.056 J1.855 E.09526
G2 X35.02 Y57.451 I.09 J3.111 E.10596
G1 X34.835 Y57.388 E.00729
G1 X34.835 Y55.144 E.08359
G3 X35.832 Y54.054 I1.023 J-.065 E.06142
G1 X59.201 Y52.634 E.87201
G3 X60.282 Y52.61 I.921 J17 E.04028
G3 X72.367 Y59.787 I-.211 J14.12 E.54799
G1 E-.56 F1800
; WIPE_START
G1 F16800
G1 X72.403 Y59.919 E-.01564
G1 X72.408 Y60.051 E-.01508
G1 X72.381 Y60.182 E-.01514
G1 X72.322 Y60.315 E-.01667
G1 X72.075 Y60.728 E-.05485
G1 X71.666 Y61.348 E-.08464
G1 X71.529 Y61.53 E-.02598
; WIPE_END
G1 E-.012 F1800
G17
G3 Z.6 I-.002 J-1.217 P1  F21000
G1 X55.819 Y61.551 Z.6
G1 Z.2
G1 E.8 F1800
; FEATURE: Outer wall
G1 F3000
G3 X56.686 Y61.117 I.949 J.813 E.03708
G3 X56.903 Y61.122 I.075 J1.6 E.00808
G3 X55.781 Y61.598 I-.135 J1.242 E.24498
G1 X55.804 Y61.51 F21000
G1 E-.56 F1800
; WIPE_START
G1 F16800
G1 X55.976 Y61.397 E-.03188
G1 X56.258 Y61.222 E-.03781
G1 X56.467 Y61.151 E-.02513
G1 X56.686 Y61.117 E-.02531
G1 X56.903 Y61.122 E-.02472
G1 X57.122 Y61.166 E-.02551
G1 X57.33 Y61.247 E-.02538
G1 X57.516 Y61.362 E-.025
